X: 12437
T: Farewell To Ballinahulla
R: slide
M: 12/8
K: Amajor
|:E|A2 A A2 c|ece a2 e|e2 A A2 c|ecA B2 E|
A2 A A2 c|ece a2 B|c2 e f2 d|BAG A2:|
|:c/e/|a3 a2 e|f2 a e2 g|a2 e c2 d|ecA B2 c/e/|
[1 a2 g a2 e|fga e2 d|c2 e f2 d|BAG A2:|
[2 c2 e d2 f|efg a2 B|c2 e fdB|BAG A2||

